!!!COM: Mendelssohn, Felix
!!!CDT: 1809/02/03-1847/11/04
!!!OPR: Sechs vierstimmige Lieder
!!!OTL: Der Glückliche
!!!OPS: Op. 88
!!!ONM: Nr. 2
!!!OMD: Allegro
**kern	**text	**dynam	**kern	**text	**dynam	**kern	**text	**dynam	**kern	**text	**dynam
*part4	*part4	*part4	*part3	*part3	*part3	*part2	*part2	*part2	*part1	*part1	*part1
*staff4	*staff4	*	*staff3	*staff3	*	*staff2	*staff2	*	*staff1	*staff1	*
*I"Bass	*	*	*I"Tenor	*	*	*I"Alt	*	*	*I"Sopran	*	*
*clefF4	*	*	*clefGv2	*	*	*clefG2	*	*	*clefG2	*	*
*k[f#]	*	*	*k[f#]	*	*	*k[f#]	*	*	*k[f#]	*	*
*M6/8	*	*	*M6/8	*	*	*M6/8	*	*	*M6/8	*	*
*MM120	*	*	*MM120	*	*	*MM120	*	*	*MM120	*	*
=	=	=	=	=	=	=	=	=	=	=	=
8G	Ich	p	8B	Ich	p	8d	Ich	p	8g	Ich	p
8G	hab’	.	8A#X	hab’	.	8d	hab’	.	8f#	hab’	.
8G	ein	.	8B	ein	.	8d	ein	.	8g	ein	.
=1	=1	=1	=1	=1	=1	=1	=1	=1	=1	=1	=1
4G^	Lieb-	.	4e^	Lieb-	.	4g^	Lieb-	.	4cc^	Lieb-	.
8G	-chen	.	8d	-chen	.	8g	-chen	.	8b	-chen	.
8G	lieb	.	8d	lieb	.	8g	lieb	.	8b	lieb	.
8G	recht	.	8c#X	recht	.	8g	recht	.	8a#X	recht	.
8G	von	.	8d	von	.	8g	von	.	8b	von	.
=2	=2	=2	=2	=2	=2	=2	=2	=2	=2	=2	=2
4G^	Her-	.	4cn^	Her-	.	4g^	Her-	.	4ee^	Her-	.
8G	-zen,	.	8B	-zen,	.	8g	-zen,	.	8dd	-zen,	.
8G	hell-	.	8B	hell-	.	8g	hell-	.	8dd	hell-	.
8G	-fri-	.	8G	-fri-	.	8d	-fri-	.	8b	-fri-	.
8F#	-sche	.	8A	-sche	.	8d	-sche	.	8a	-sche	.
=3	=3	=3	=3	=3	=3	=3	=3	=3	=3	=3	=3
.	.	.	.	.	.	.	.	.	(16qqa/	.	.
4E	Au-	.	4B	Au-	.	4d	Au-	.	8gL)	Au-	.
.	.	.	.	.	.	.	.	.	8f#J	.	.
8E	-gen	.	8B	-gen	.	8d	-gen	.	8g	-gen	.
.	.	.	.	.	.	.	.	.	(16qqa/	.	.
8E	hat’s	.	8c	hat’s	.	8c	hat’s	.	8g)	hat’s	.
8E	wie	.	8G	wie	.	8c	wie	.	8f#	wie	.
8E	zwei	.	8G	zwei	.	8c	zwei	.	8g	zwei	.
=4	=4	=4	=4	=4	=4	=4	=4	=4	=4	=4	=4
4D	Ker-	.	4G	Ker-	.	4d	Ker-	.	4b	Ker-	.
8D	-zen,	.	8F#	-zen,	.	8d	-zen,	.	8a	-zen,	.
8c	und	.	8d	und	.	8f#	und	.	8a	und	.
8c	wo	<	8d	wo	<	8g	wo	<	8b	wo	<
8c	sie	.	8d	sie	.	8a	sie	.	8cc	sie	.
=5	=5	=5	=5	=5	=5	=5	=5	=5	=5	=5	=5
4B	spie-	.	4d	spie-	.	4g	spie-	.	(8ddL	spie-	.
.	.	.	.	.	.	.	.	.	8bJ)	.	.
8B	-lend	.	8d	-lend	.	8g	-lend	.	8g	-lend	.
8G	strei-	.	8d	strei-	.	8g	strei-	.	8ffn	strei-	.
8G	-fen	.	8c	-fen	.	8g	-fen	.	8ee	-fen	.
8G	das	.	8B	das	.	8fn	das	.	8dd#X	das	.
=6	=6	=6	=6	=6	=6	=6	=6	=6	=6	=6	=6
(4.c	Feld,	.	(4.c	Feld,	.	(4.e	Feld,	.	4.ee	Feld,	.
8c)	.	.	8c)	.	.	8e)	.	.	8ee	ach,	f
8r	.	.	8r	.	.	8r	.	.	8cc	wie	.
8r	.	.	8r	.	.	8r	.	.	8b	so	.
=7	=7	=7	=7	=7	=7	=7	=7	=7	=7	=7	=7
.	.	.	.	.	.	.	.	.	(16qqb/	.	.
2.r	.	.	2.r	.	.	2.r	.	.	(8aL)	lus-	.
.	.	.	.	.	.	.	.	.	8g#XJ)	.	.
.	.	.	.	.	.	.	.	.	8a	-tig	.
.	.	.	.	.	.	.	.	.	8ggn	glän-	.
.	.	.	.	.	.	.	.	.	8ee	-zet	.
.	.	.	.	.	.	.	.	.	8cc	die	.
=8	=8	=8	=8	=8	=8	=8	=8	=8	=8	=8	=8
4r	.	.	4r	.	.	4r	.	.	(2.a	Welt,	.
8r	.	.	8r	.	.	8r	.	.	.	.	.
8C	ach	f	8e	ach,	f	8e	ach	f	.	.	.
8C	wie	.	8c	wie	.	8e	wie	.	.	.	.
8C	so	.	8B	so	.	8e	so	.	.	.	.
=9	=9	=9	=9	=9	=9	=9	=9	=9	=9	=9	=9
.	.	.	(16qqB/	.	.	.	.	.	.	.	.
4C#X	lus-	.	8AL)	lus-	.	4g	lus-	.	(4.a)	.	.
.	.	.	8G#XJ	.	.	.	.	.	.	.	.
8C#	-tig	.	8A	-tig	.	8e	-tig	.	.	.	.
8c#X	glän-	.	8gn	glän-	.	8e	glän-	.	8a)	.	.
8c#	-zet	.	8e	-zet	.	8e	-zet	.	8r	.	.
8c#	die	.	8c#X	die	.	8e	die	.	8r	.	.
=10	=10	=10	=10	=10	=10	=10	=10	=10	=10	=10	=10
(4.c#X	Welt,	>	(4.A	Welt,	>	(4.g	Welt,	>	4r	.	.
.	.	.	.	.	.	.	.	.	8r	.	.
4.cn)	.	]	[4.d)	.	]	4.f#)	.	]	8ff#	und	p
.	.	.	.	.	.	.	.	.	8ee	wo	.
.	.	.	.	.	.	.	.	.	8dd	sie	.
=11	=11	=11	=11	=11	=11	=11	=11	=11	=11	=11	=11
4.B	ach,	.	4.d]	.	.	4.g	ach,	.	4dd	spie-	.
.	.	.	.	.	.	.	.	.	8g	-lend	.
4F#	wie	p	4A	wie	p	4d	wie	p	8cc	strei-	.
.	.	.	.	.	.	.	.	.	8b	-fen	.
8F#	so	.	8c	so	.	8d	so	.	8a#X	das	.
=12	=12	=12	=12	=12	=12	=12	=12	=12	=12	=12	=12
4.G	lus-	.	4.B	lus-	.	4.d	lus-	.	4.b	Feld,	.
4.C#X	-tig	.	(4G	-tig	.	(4e	-tig	.	8an	ach,	.
.	.	.	.	.	.	.	.	.	8g	wie	.
.	.	.	8A)	.	.	8g)	.	.	8e	so	.
=13	=13	=13	=13	=13	=13	=13	=13	=13	=13	=13	=13
(4.D	glän-	.	(4.B	glän-	.	(4.d	glän-	.	(8dL	lus-	.
.	.	.	.	.	.	.	.	.	8gJ)	.	.
.	.	.	.	.	.	.	.	.	8b	-tig	.
8D)	.	.	8F#)	.	.	8c)	.	.	8dd	glän-	.
8D	-zet	.	8F#	-zet	.	8c	-zet	.	8a	-zet	.
8D	die	.	8F#	die	.	8c	die	.	8b	die	.
=14	=14	=14	=14	=14	=14	=14	=14	=14	=14	=14	=14
(4.GG	Welt,	.	4.G	Welt,	.	4.B	Welt,	.	[2.g	Welt,	.
8GG)	.	.	8e	und	.	8g	und	.	.	.	.
8r	.	.	8d	wo	.	8f#	wo	.	.	.	.
8r	.	.	8c	sie	.	8e	sie	.	.	.	.
=15	=15	=15	=15	=15	=15	=15	=15	=15	=15	=15	=15
.	.	.	(16qqc/	.	.	(16qqe/	.	.	.	.	.
2.r	.	.	8BL)	spie-	.	8dL)	spie-	.	(2.g]	.	.
.	.	.	8A#XJ	.	.	8c#XJ	.	.	.	.	.
.	.	.	8B	-lend	.	8d	-lend	.	.	.	.
.	.	.	8c	strei-	.	8e	strei-	.	.	.	.
.	.	.	8B	-fen	.	8d	-fen	.	.	.	.
.	.	.	8A#	das	.	8c#	das	.	.	.	.
=16	=16	=16	=16	=16	=16	=16	=16	=16	=16	=16	=16
4r	.	.	(4.An	Feld,	.	(4.cn	Feld,	.	4.g)	.	.
8r	.	.	.	.	.	.	.	.	.	.	.
8G	ach,	.	4A)	.	.	4c)	.	.	8cc	ach,	.
8G	wie	.	.	.	.	.	.	.	8a	wie	.
8G	so	.	8A	wie	.	8c	wie	.	8f#	so	.
=17	=17	=17	=17	=17	=17	=17	=17	=17	=17	=17	=17
4G	lu-	.	4G	lus-	.	4B	lu-	.	4dd	lus-	.
8G	-stig	.	8B	-tig	.	8d	-stig	.	8g	-tig	.
8G	glän-	f	8A	glän-	f	8d	glän-	f	8cc	glän-	f
!LO:TX:a:i:t=rit.	!	!LO:TX:a:i:t=rit.	!	!LO:TX:a:i:t=rit.	!	!	!	!	!LO:TX:a:i:t=rit.	!	!
8G	-zet	.	8c	-zet	.	8d	-zet	.	8a	-zet	.
8G	die	.	8c	die	.	8d	die	.	8f#	die	.
=18	=18	=18	=18	=18	=18	=18	=18	=18	=18	=18	=18
4.G;	Welt,	.	4.B;	Welt,	.	4.d;	Welt,	.	4.g;	Welt!	.
!LO:TX:a:B:t=tempo	!	!	!LO:TX:a:B:t=tempo	!	!	!LO:TX:a:B:t=tempo	!	!	!LO:TX:a:B:t=tempo	!	!LO:DY:a
8G	Wie	pp	8B	Wie	pp	8d	Wie	pp	8g	Wie	pp
8G	in	.	8B	in	.	8d	in	.	8f#	in	.
8G	der	.	8B	der	.	8d	der	.	8g	der	.
=19	=19	=19	=19	=19	=19	=19	=19	=19	=19	=19	=19
4F#	Wald-	.	4c	Wald-	.	4d#X	Wald-	.	4a	Wald-	.
8F#	-nacht	.	8c	-nacht	.	8d#	-nacht	.	8a	-nacht	.
8E	zwi-	.	8c	zwi-	.	8e	zwi-	.	8a	zwi-	.
8E	-schen	.	8B	-schen	.	8e	-schen	.	8g#X	-schen	.
8E	den	.	8c	den	.	8e	den	.	8a	den	.
=20	=20	=20	=20	=20	=20	=20	=20	=20	=20	=20	=20
4D#X	Schlüf-	.	4A	Schlüf-	.	4f#	Schlüf-	.	4cc	Schlüf-	.
8D#	-ten	.	8A	-ten	.	8f#	-ten	.	8b	-ten	.
8.BB	plötz-	.	8.A	plötz-	.	8.d#X	plötz-	.	8.b	plötz-	.
16BB	-lich	.	16A	-lich	.	16d#	-lich	.	16b	-lich	.
8BB	die	.	8A	die	.	8d#	die	.	8b	die	.
=21	=21	=21	=21	=21	=21	=21	=21	=21	=21	=21	=21
(8EL	Tä-	.	(8GL	Tä-	.	4e	Tä-	.	(8bL	Tä-	.
8GJ)	.	.	8BJ)	.	.	.	.	.	8gJ)	.	.
8F#	-ler	.	8A	-ler	.	8f#	-ler	.	8a	-ler	.
8E	son-	.	8G	son-	.	8g	son-	.	8b	son-	.
8G	-nig	.	8B	-nig	.	8e	-nig	.	8g	-nig	.
8F#	sich	.	8A	sich	.	8f#	sich	.	8a	sich	.
=22	=22	=22	=22	=22	=22	=22	=22	=22	=22	=22	=22
4E	klüf-	.	4G	klüf-	.	4g	klüf-	.	4b	klüf-	.
8G	-ten,	.	8B	-ten,	.	8e	-ten,	.	8g	-ten,	.
8E	fun-	.	8B	fun-	.	8g	fun-	.	8b	fun-	.
8E	-keln	<	8B	-keln	<	8g	-keln	<	8a#X	-keln	<
8E	die	.	8B	die	.	8g	die	.	8b	die	.
=23	=23	=23	=23	=23	=23	=23	=23	=23	=23	=23	=23
4.E	Strö-	.	4.B	Strö-	.	4.g	Strö-	.	4.cc#X	Strö-	.
4E	-me,	<	4B	-me,	<	4g	-me,	<	8cc#L	-me,	<
.	.	.	.	.	.	.	.	.	8bJ	.	.
8E	rauscht	[[	8B	rauscht	[[	8g	rauscht	[[	8cc#	rauscht	[[
=24	=24	=24	=24	=24	=24	=24	=24	=24	=24	=24	=24
4F#	him-	sf	4B	him-	sf	4f#	him-	sf	4dd	him-	sf
8F#	-mel-	.	8e	-mel-	.	8f#	-mel-	.	8cc#X	-mel-	.
4.F#	-wärts	.	4.d	-wärts	.	4.f#	-wärts	.	4.b	-wärts	.
=25	=25	=25	=25	=25	=25	=25	=25	=25	=25	=25	=25
4.F#	blü-	f	4.d	blü-	f	4.f#	blü-	f	(4.ff#	blü-	f
4F#	-hen-	.	4c#X	-hen-	.	4a#X	-hen-	.	8ff#)	.	.
.	.	.	.	.	.	.	.	.	8ee	-hen-	.
8F#	-de	.	8B	-de	.	8b	-de	.	8dd	-de	.
=26	=26	=26	=26	=26	=26	=26	=26	=26	=26	=26	=26
4.F#^	Wild-	.	4.f#^	Wild-	.	4.b^	Wild-	.	4.dd^	Wild-	.
4.F#	-nis	.	(4e	-nis	.	4.f#	-nis	.	(4cc#X	-nis	.
.	.	.	8d)	.	.	.	.	.	8b)	.	.
=27	=27	=27	=27	=27	=27	=27	=27	=27	=27	=27	=27
4.F#^	so	.	4.f#^	so	.	4.b^	so	.	4.dd^	so	.
4F#	ist	.	4e	ist	.	4a#X	ist	.	4cc#X	ist	.
8F#	mein	.	8d	mein	.	8f#	mein	.	8b	mein	.
=28	=28	=28	=28	=28	=28	=28	=28	=28	=28	=28	=28
4.B;	.	.	4.d;	Herz!	.	4.f#;	.	.	4.b;	Herz!	.
4r	.	.	8B	Wie	p	8d	Wie	p	8f#	Wie	p
.	.	.	8B	vom	.	8d	vom	.	8f#	vom	.
8r	.	.	8B	Ge-	.	8d	Ge-	.	8f#	Ge-	.
=29	=29	=29	=29	=29	=29	=29	=29	=29	=29	=29	=29
2.r	.	.	8B	-bir-	.	8d	-bir-	.	8e#X	-bir-	.
.	.	.	8B	-ge	.	8d	-ge	.	8e#	-ge	.
.	.	.	8B	in’s	.	8d	in’s	.	8e#	in’s	.
.	.	.	4B	Meer	.	4c#X	Meer	.	(8g#XL	Meer	.
.	.	.	.	.	.	.	.	.	8f#J)	.	.
.	.	.	8B	zu	.	8c#	zu	.	8e#	zu	.
=30	=30	=30	=30	=30	=30	=30	=30	=30	=30	=30	=30
4r	.	.	4.A	schau-	.	4.c#X	schau-	.	4.e#X	schau-	.
8r	.	.	.	.	.	.	.	.	.	.	.
8A	Wie	p	4A	-en,	.	4c#	-en,	.	4f#	-en,	.
8A	vom	.	.	.	.	.	.	.	.	.	.
8A	Ge-	.	8A	in’s	.	8c#	in’s	.	8f#	in’s	.
=31	=31	=31	=31	=31	=31	=31	=31	=31	=31	=31	=31
8G#X	-bir-	.	(4.d	-Meer	.	4.e#X	Meer	.	(4.b	-Meer	.
8G#	-ge	.	.	.	.	.	.	.	.	.	.
8G#	in’s	.	.	.	.	.	.	.	.	.	.
4F#	Meer	<	(8dL)	.	<	4.f#	zu	<	(8bL)	.	<
.	.	.	8c#XJ)	.	.	.	.	.	8cc#XJ)	.	.
8F#	zu	.	8B	zu	.	.	.	.	8dd	zu	.
=32	=32	=32	=32	=32	=32	=32	=32	=32	=32	=32	=32
4E#X	schau-	.	4B	schau-	.	4g#X	schau-	.	4dd	schau-	.
8E#	-en,	.	8B	-en,	.	8g#	-en,	.	8cc#X	-en,	.
8.E#	wie	p	8.B	wie	p	8.g#	wie	p	8.cc#	wie	p
16E#	wenn	.	16B	wenn	.	16g#	wenn	.	16cc#	wenn	.
8E#	der	.	8B	der	.	8g#	der	.	8cc#	der	.
=33	=33	=33	=33	=33	=33	=33	=33	=33	=33	=33	=33
(8F#L	See-	.	(8AL	See-	.	4f#	See-	.	(8cc#XL	See-	.
8AJ)	.	.	8c#XJ)	.	.	.	.	.	8aJ)	.	.
8G#X	-falk,	.	8B	-falk,	.	8g#X	-falk,	.	8b	-falk,	.
8F#	hän-	.	8A	hän-	.	8a	hän-	.	8cc#	hän-	.
8A	-gend	.	8c#	-gend	.	8f#	-gend	.	8a	-gend	.
8G#	im	.	8B	im	.	8g#	im	.	8b	im	.
=34	=34	=34	=34	=34	=34	=34	=34	=34	=34	=34	=34
4F#	Blau-	.	4A	Blau-	.	4a	Blau-	.	4cc#X	Blau-	.
8A	-en,	.	8c#X	-en,	.	8f#	-en,	.	8a	-en,	.
8F#	zu-	.	8c#	zu-	.	8f#	zu-	.	8a	zu-	.
8F#	-ruft	.	8c#	-ruft	.	8f#	-ruft	.	8a	-ruft	.
8F#	der	.	8c#	der	.	8f#	der	.	8a	der	.
=35	=35	=35	=35	=35	=35	=35	=35	=35	=35	=35	=35
4.EnX	däm-	.	4.A	däm-	.	4.gn	däm-	.	(4.cc#X	däm-	.
4E	-mern-	<	4A	-mern-	<	4g	-mern-	<	8cc#)	.	<
.	.	.	.	.	.	.	.	.	8b	-mern-	.
8E	-den	.	8A	-den	.	8g	-den	.	8a	-den	.
=36	=36	=36	=36	=36	=36	=36	=36	=36	=36	=36	=36
4.D	Erd’,	.	4.A	Erd’,	.	4.f#	Erd’,	.	4.dd	Erd’,	.
4D	wo	.	4cnX	wo	.	4d	wo	.	4f#	wo	.
8D	sie	.	8B	sie	.	8d	sie	.	8g	sie	.
=37	=37	=37	=37	=37	=37	=37	=37	=37	=37	=37	=37
[2.D	blieb?	.	4.A	blieb,	.	4.f#	blieb,	.	4.a	blieb,	.
.	.	.	(4c	der	.	(4f#	der	.	(4a	der	.
.	.	.	8B)	.	.	8g)	.	.	8b)	.	.
=38	=38	=38	=38	=38	=38	=38	=38	=38	=38	=38	=38
(2.D]	.	.	4.A	Erd’,	.	4.a	Erd’,	.	4.cc	Erd’,	.
.	.	.	4c	wo	.	4a	wo	.	4cc	wo	.
.	.	.	8B-X	sie	.	8g	sie	.	8cc#X	sie	.
=39	=39	=39	=39	=39	=39	=39	=39	=39	=39	=39	=39
4.D)	.	[[	4.A	blieb?	[[	4.f#	blieb?	[[	4.dd	blieb?	[[
4.D	So	f	4.c	So	f	4.f#	So	f	4.dd	So	f
=40	=40	=40	=40	=40	=40	=40	=40	=40	=40	=40	=40
4.GG	un-	sf	4.BnX	un-	sf	4.g	un-	sf	4.gg	un-	sf
4.GG	-er-	.	4.B	-er-	.	4.g	-er-	.	4.dd	-er-	.
=41	=41	=41	=41	=41	=41	=41	=41	=41	=41	=41	=41
4.G	-mess-	.	4.d	-mess-	.	4.g	-mess-	.	4.b	-mess-	.
4G	-lich	.	4c	-lich	.	4g	-lich	.	4a	-lich	.
8G	ist	.	8B	ist	.	8g	ist	.	8g	ist	.
=42	=42	=42	=42	=42	=42	=42	=42	=42	=42	=42	=42
4.G	rech-	.	4.e	rech-	.	4.g	rech-	.	4.cc	rech-	.
4.G	-te	.	4.c	-te	.	4.f#	-te	.	4.ee	-te	.
=43	=43	=43	=43	=43	=43	=43	=43	=43	=43	=43	=43
2.G	Lieb’,	.	2.B	Lieb’,	.	2.g	Lieb’,	.	2.dd	Lieb’,	.
=44	=44	=44	=44	=44	=44	=44	=44	=44	=44	=44	=44
(4.G	un-	p	4.B	so	p	4.g	so	p	4.g	so	p
4F#)	.	.	4c	un-	.	4g	un-	.	4a	un-	.
8Fn	-er-	.	8d	-er-	.	8g	-er-	.	8b	-er-	.
=45	=45	=45	=45	=45	=45	=45	=45	=45	=45	=45	=45
4.E	-mess-	.	4.c	-mess-	.	4.g	-mess-	.	(4dd	-mess-	.
.	.	.	.	.	.	.	.	.	8cc)	.	.
4D	-lich	<	4d	-lich	<	4g	-lich	<	4b	-lich	<
8C#X	ist	.	8e	ist	.	8g	ist	.	8a	ist	.
=46	=46	=46	=46	=46	=46	=46	=46	=46	=46	=46	=46
4.C#X	rech-	.	4.A	rech-	.	4.g	rech-	.	(4ff#	rech-	.
.	.	.	.	.	.	.	.	.	8ee)	.	.
4.C#	-te	.	4.A	-te	.	4.g	-te	.	(4cc#X	-te	.
.	.	.	.	.	.	.	.	.	8a)	.	.
=47	=47	=47	=47	=47	=47	=47	=47	=47	=47	=47	=47
(4.D	Lieb’,	.	4.A	Lieb’,	.	(4.f#	Lieb’,	.	(4.a	Lieb’,	.
4D)	.	.	4.cnX	so	f	4f#)	.	.	4a)	.	.
8D	so	f	.	.	.	8f#	so	f	8dd	so	f
=48	=48	=48	=48	=48	=48	=48	=48	=48	=48	=48	=48
4.GG	un-	sf	4.B	un-	sf	4.g	un-	sf	4.gg	un-	sf
4.GG	-er-	.	4.B	-er-	.	4.g	-er-	.	4.dd	-er-	.
=49	=49	=49	=49	=49	=49	=49	=49	=49	=49	=49	=49
4.G	-mess-	.	4.d	-mess-	.	4.fn	-mess-	.	4.b	-mess-	.
4G	-lich	.	4c	-lich	.	4f	-lich	.	4a	-lich	.
8G	ist	.	8B	ist	.	8f	ist	.	8g	ist	.
=50	=50	=50	=50	=50	=50	=50	=50	=50	=50	=50	=50
4.G	rech-	.	4.d	rech-	.	(4.fn	rech-	.	4.ffn	rech-	.
4.G	-te	.	(4c	-te	.	4f)	.	.	(4ee	-te	.
.	.	.	8B)	.	.	8f	-te	.	8dd#X)	.	.
=51	=51	=51	=51	=51	=51	=51	=51	=51	=51	=51	=51
2.C	Lieb’,	.	2.c	Lieb’,	.	2.e	Lieb’,	.	2.ee	Lieb’,	.
=52	=52	=52	=52	=52	=52	=52	=52	=52	=52	=52	=52
4.c	so	p	4.e	so	p	4.a	so	p	4.a	so	p
4d	un-	.	4fn	un-	.	4g#X	un-	.	4cc	un-	.
8d	-er-	.	8f	-er-	.	8g#	-er-	.	8b	-er-	.
=53	=53	=53	=53	=53	=53	=53	=53	=53	=53	=53	=53
4.d	-mess-	.	4.fn	-mess-	.	4.g#X	-mess-	.	4.b	-mess-	.
4.c	-lich	.	4.e	-lich	.	4.a	-lich	.	4.a	-lich	.
=54	=54	=54	=54	=54	=54	=54	=54	=54	=54	=54	=54
4.c	ist	.	4.e	ist	.	4.a	ist	.	4.ee	ist	.
4d	rech-	<	4fn	rech-	<	4g#X	rech-	<	4cc	rech-	<
8d	-te	.	8f	-te	.	8g#	-te	.	8b	-te	.
=55	=55	=55	=55	=55	=55	=55	=55	=55	=55	=55	=55
(4.d	Lieb’,	.	(4.fn	Lieb’,	.	(4.g#X	Lieb’,	.	(4.b	Lieb’,	.
[4.c#X)	.	.	[4.e)	.	.	[4.a)	.	.	4a)	.	.
.	.	.	.	.	.	.	.	.	8a	so	f
=56	=56	=56	=56	=56	=56	=56	=56	=56	=56	=56	=56
4.c#]	.	.	(4.e]	.	.	4.a]	.	.	(4aa	un-	.
.	.	.	.	.	.	.	.	.	8gg)	.	.
4.cnX	ist	f	4d)	.	.	4.a	ist	f	(4ff#	-er-	.
.	.	.	8f#X	ist	f	.	.	.	8ee)	.	.
=57	=57	=57	=57	=57	=57	=57	=57	=57	=57	=57	=57
4.B	rech-	.	4.g	rech-	.	(4b	rech-	.	(4dd	-mess-	.
.	.	.	.	.	.	8g)	.	.	8b)	.	.
4.c	-te,	.	(4e	-te	.	(4g	-te,	.	4a	-lich	.
.	.	.	8c)	.	.	8e)	.	.	8cc	ist	.
=58	=58	=58	=58	=58	=58	=58	=58	=58	=58	=58	=58
4.D	rech-	.	4.B	rech-	.	4.d	rech-	.	4.g	rech-	.
4.D	-te	.	4.A	-te	.	4.d	-te	.	4.f#	-te	.
=59	=59	=59	=59	=59	=59	=59	=59	=59	=59	=59	=59
(4.E	Lieb’,	.	(4.G	Lieb’,	.	(4.c#X	Lieb’,	.	(4.g	Lieb’,	.
4E)	.	.	4G)	.	.	4c#)	.	.	4g)	.	.
8E	so	f	8c#X	so	f	8g	so	f	8g	so	f
=60	=60	=60	=60	=60	=60	=60	=60	=60	=60	=60	=60
4.E	un-	.	4.c#X	un-	.	4.g	un-	.	(4aa	un-	.
.	.	.	.	.	.	.	.	.	8gg)	.	.
4.F#	-er-	.	4.cn	-er-	.	4.d	-er-	.	(4ff#	-er-	.
.	.	.	.	.	.	.	.	.	8ee)	.	.
=61	=61	=61	=61	=61	=61	=61	=61	=61	=61	=61	=61
4.G	-mess-	.	4.B	-mess-	.	(4d	-mess-	.	(4dd	-mess-	.
.	.	.	.	.	.	8d#X)	.	.	8b)	.	.
4C	-lich	.	4e	-lich	.	4e	-lich	.	4a	-lich	.
8C	ist	.	8c	ist	.	8e	ist	.	8cc	ist	.
=62	=62	=62	=62	=62	=62	=62	=62	=62	=62	=62	=62
4.D	rech-	.	4.B	rech-	.	4.g	rech-	.	4.g	rech-	.
4.D	-te	.	(4d	-te	.	4.f#	-te	.	(4b	-te	.
.	.	.	8c)	.	.	.	.	.	8a)	.	.
=63	=63	=63	=63	=63	=63	=63	=63	=63	=63	=63	=63
(4.G	Lieb’,	.	(4.B	Lieb’,	.	[2.g	Lieb’,	.	[2.g	Lieb’,	.
4G)	.	.	4B)	.	.	.	.	.	.	.	.
8G	so	f	8G	so	f	.	.	.	.	.	.
=64	=64	=64	=64	=64	=64	=64	=64	=64	=64	=64	=64
4.e	un-	.	4.g	un-	.	(2.g]	.	.	(2.g]	.	.
4.c	-er-	.	4.e	-er-	.	.	.	.	.	.	.
=65	=65	=65	=65	=65	=65	=65	=65	=65	=65	=65	=65
4.c	-mess-	.	4.e	-mess-	.	4.g)	.	.	4.g)	.	.
4.B	-lich,	.	4.d	-lich,	.	4r	.	.	4r	.	.
.	.	.	.	.	.	8g	so	f	8g	so	f
=66	=66	=66	=66	=66	=66	=66	=66	=66	=66	=66	=66
2.r	.	.	2.r	.	.	4.ee	un-	.	4.gg	un-	.
.	.	.	.	.	.	4.cc	-er-	.	4.ee	-er-	.
=67	=67	=67	=67	=67	=67	=67	=67	=67	=67	=67	=67
4.r;	.	.	4.r;	.	.	4.cc;	-mess-	.	4.ee;	-mess-	.
4r;	.	.	4r;	.	.	4b;	-lich,	.	4dd;	-lich,	.
8G	so	f	8g	so	f	8g	so	f	8g	so	f
=68	=68	=68	=68	=68	=68	=68	=68	=68	=68	=68	=68
4.E	un-	.	4.g	un-	.	4.g	un-	.	4.cc	un-	.
4.C	-er-	.	4.A	-er-	.	4.g	-er-	.	4.ee	-er-	.
=69	=69	=69	=69	=69	=69	=69	=69	=69	=69	=69	=69
4.D	-mess-	.	4.B	-mess-	.	4.g	-mess-	.	4.dd	-mess-	.
4D	-lich	.	4d	-lich	.	4b	-lich	.	4gg	-lich	.
8D	ist	.	8B	ist	.	8g	ist	.	8dd	ist	.
=70	=70	=70	=70	=70	=70	=70	=70	=70	=70	=70	=70
4.D	rech-	.	4.d	rech-	.	4.g	rech-	.	4.b	rech-	.
4.D	-te	.	4.c	-te	.	4.f#	-te	.	4.a	-te	.
=71	=71	=71	=71	=71	=71	=71	=71	=71	=71	=71	=71
2.GG; 2.G	Lieb’!	.	2.B;	Lieb’!	.	2.d;	Lieb’!	.	2.g;	Lieb’!	.
==	==	==	==	==	==	==	==	==	==	==	==
*-	*-	*-	*-	*-	*-	*-	*-	*-	*-	*-	*-
!!!system-decoration: ([s1,s2,s3,s4])
!!!RDF**kern: i = editorial accidental
!!!AGN: Choral
!!!YOR: https://mdz-nbn-resolving.de/details:bsb00026635
!!!YOO: München, Bayerische Staatsbibliothek
!!!URL-scan: https://www.digitale-sammlungen.de/de/view/bsb00026635?page=2
!!!EED: Wolfgang Drescher
!!!END: 2024/11/15
!!!ENC: Wolfgang Drescher
!!!EEV: 2024/11/15
!!!title: @{OPS} @{ONM}. @{OTL}